X:1
T: Glen Lean
C:
R:Strathspey
Q: 128
K:A
M:4/4
L:1/16
|:c4 B3A ce3 e4|a3e fe3 a3e fa3|c4 B3A ce3 e3f|ec3 c3A B6d2|
c4 B3A ce3 e4|a3e fe3 a3e fa3|c4 B3A ce3 e3f|ec3 c3A B6d2|
c3e a3f ec3 BA3|c3e a3f e6d2|c3e a3f ec3 BA3|B3A B3c B6d2|
c3e a3f ec3 BA3|c3e a3f e6d2|c3e a3f ec3 BA3|B3A Bc3 A6z2:|
